X:1
T:De coelo veniet
T:Jacob Handl (1550-1591)
T:De coelo veniet
T:Copyright © 
T:Copyright © 
T:Copyright © 
C:Jacob Handl (1550-1591)
Z:Copyright ©
%%score [ 1 2 3 4 ]
L:1/8
M:4/2
K:F
V:1 treble nm="Soprano I"
V:2 treble nm="Soprano II"
V:3 treble transpose=-12 nm="Alto I"
V:4 treble transpose=-12 nm="Alto II"
V:1
"^C" z16 | G8 g8- | g4 f4 e4 d4 | c4 d2 e2 f2 e2 d2 c2 | B4 A4 G4 A4 | B4 c4 d2 e2 f2 d2 | %6
w: |De coe-|* lo ve- ni-|et, _ _ _ _ _ _|_ de coe- lo|ve- ni- et, _ _ _|
 _e2 d2 B2 c2 d4 d4- | d4 c4 B8 | c8 z4 d4- | d4 c2 B2 c4 c4 | d8 z4 d4- | d4 d4 _e8- | e4 d4 c8 | %13
w: _ _ _ _ _ Do-|* mi- na-|tor Do-|* * * * mi-|nus, et|_ in ma-|* nu e-|
 =B4 d4 c4 d4 | f4 d6 e2 f2 e2 | d4 B4 A8 | z4 d8 B4- | B4 G4 g6 f2 | _e4 e4 d8 | f12 d4 | %20
w: ius ho- nor et|im- pe- * * *|* ri- um.|Ec- ce|_ Rex ve- *|* ni- et,|Do- mi-|
 f4 g4 f8 | z4 F2 G2 A2 B2 c2 B2 | c2 A2 d4 c8 | z4 d4 d4 d4 | g12 f4 | e4 d4 c4 G4 | %26
w: nus ter- rae,|ter- * * * * *|* * * rae:|et ip- se|au- fe-|ret ju- gum cap-|
 A4 B4 c2 A2 d4- | d4 c2 B2 A4 G4 | ^F4 G4 A2 D2 d4 | =B4 d8 c4 | _B4 A4 G4 G4 | d8 z4 f4- | %32
w: ti- vi- ta- * *|* * * * tis|no- * * * *|strae. Su- per|te, Je- ru- sa-|lem, o-|
 f4 _e4 d8- | d8 _e4 g4- | g4 ^f2 =e2 f4 f4 | g16 | z4 g4 f4 d4 | f8 f8 | f8 z4 c4 | d4 f4 _e4 d4 | %40
w: * ri- e-|* tur Do-|* * * * mi-|nus,|et glo- ri-|a e-|ius in|te vi- de- bi-|
 c8 z4 c4 | d4 f4 _e4 d4 | =e2 f2 g2 d2 f4 z4 | F4 A4 B4 f2 f2 | f4 F4 A4 B4 | _e2 d2 B2 c2 d6 d2 | %46
w: tur, in|te vi- de- bi-|tur, _ _ _ _|in te vi- de- bi-|tur, in te vi-|de- * * * * bi-|
 !fermata!d16 |] %47
w: tur.|
V:2
 D8 d8- | d4 c4 B4 A4 | G4 A2 B2 c2 B2 A2 G2 | A4 A8 d4- | d4 c4 B4 A4 | G4 A4 B4 A4 | %6
w: De coe-|* lo ve- ni-|et, _ _ _ _ _ _|_ de coe-|* lo ve- ni-|et, de coe- lo|
 G2 F2 G8 ^F4 | G8 z4 B4- | B4 A4 G4 F4 | F12 F4 | F8 z4 B4- | B4 B4 B8 | B8 G8 | G4 B4 A4 B4 | %14
w: ve- * * ni-|et, Do-|* mi- na- tor|Do- mi-|nus, et|_ in ma-|nu e-|ius ho- nor et|
 c4 B8 A4 | B2 c2 d2 _e2 d4 d4- | d4 B8 G4 | d4 d4 G8 | z16 | z4 d8 B4 | d4 D6 E2 F2 G2 | %21
w: im- pe- ri-|um. _ _ _ _ Ec-|* ce Rex|ve- ni- et,||Do- mi-|nus ter- * * *|
 A2 B2 c2 B2 A2 G2 F2 G2 | A2 F2 B6 AG A4 | B16- | B8 G8 | G4 G4 c8- | c4 B4 A4 G4 | F4 E4 F4 G4 | %28
w: ||rae:|_ et|ip- se au-|* fe- ret ju-|gum cap- ti- vi-|
 A4 B4 A8 | G4 B8 A4 | G4 D4 _E4 E4 | D8 z4 B4 | A4 G8 G4 | D6 D2 G2 A2 B2 c2 | d8 z4 d4 | %35
w: ta- tis no-|strae. Su- per|te, Je- ru- sa-|lem, o-|ri- e- tur|Do- mi- nus, _ _ _|_ et|
 B4 G4 B4 c4 | d16 | z4 d4 c4 A4 | d8 c8 | B4 F4 G4 B4 | A4 G4 F4 G4 | B4 c4 B4 G4 | c4 G4 A4 c4 | %43
w: glo- ri- a e-|ius,|et glo- ri-|a e-|ius in te vi-|de- bi- tur, in|te vi- de- bi-|tur, in te vi-|
 B4 A4 G4 c4 | d4 f4 e4 d4 | c2 B2 B2 AG A6 GA | !fermata!=B16 |] %47
w: de- bi- tur, in|te vi- de- bi-|tur. _ _ _ _ _ _ _|_|
V:3
 z16 | z16 | z16 | z8 D8 | d12 c4 | B4 A4 G4 A2 B2 | c2 B2 B2 AG A8 | z4 G8 F4 | %8
w: |||De|coe- lo|ve- ni- et, _ _|_ _ _ _ _ _|Do- mi-|
 _E4 C4 D2 B,2 B4- | B4 A2 G2 A4 A4 | B8 z4 F4- | F4 F4 G8- | G4 F4 _E8 | D8 z4 B4 | A4 B4 F4 A4- | %15
w: na- tor De- * *|* * * * mi-|nus, et|_ in ma-|* nu e-|ius ho-|nor et im- pe-|
 A2 G2 G8 ^F4 | G8 z4 d4- | d4 B8 G4- | G4 c8 B4 | A8 z4 d4- | d4 B4 d4 D2 E2 | %21
w: * * * ri-|um. Ec-|* ce Rex|_ ve- ni-|et, Do-|* mi- nus ter- *|
 F2 G2 A2 B2 c2 B2 A2 G2 | F16 | F8 z8 | G8 G4 G4 | c12 B4 | A4 G4 F4 D4 | B4 G4 d4 B4 | %28
w: ||rae:|et ip- se|au- fe-|ret ju- gum cap-|ti- vi- ta- tis|
 A2 G2 G8 ^F4 | G8 z8 | d8 c4 B4- | B4 A4 G4 F4 | c8 z4 B4- | B4 A4 G8 | B4 A8 A4 | G16- | %36
w: no- * * *|strae.|Su- per te,|_ Je- ru- sa-|lem, o-|* ri- e-|tur Do- mi-|nus,|
 G8 z4 G4 | F4 D4 F6 G2 | A4 B8 A4 | B8 z8 | z4 G4 A4 c4 | B4 A4 G8 | z4 B4 c4 _e4 | d4 c4 B4 A4 | %44
w: _ et|glo- ri- a _|_ e- *|ius|in te vi-|de- bi- tur,|in te vi-|de- bi- tur, in|
 B4 d4 c4 B2 A2 | G2 F2 G8 ^F4 | !fermata!G16 |] %47
w: te vi- de- * *|* * * bi-|tur.|
V:4
 z8 G,8 | G12 F4 | E4 D4 C4 D2 E2 | F2 E2 D2 C2 D2 C2 B,2 A,2 | G,8 G,8 | %5
w: De|coe- lo|ve- ni- et, _ _|_ _ _ _ _ _ _ _|* de|
"^Copyright © 2016 Raymond Nagem. Distributed under the terms of the CPDL license (http://www.cpdl.org.) This edition may be freely distributed, duplicated, performed, or recorded." G12 F4 | %6
w: coe- lo|
 C4 _E4 D8 | _E12 D4 | C8 B,8 | F,12 F,4 | B,8 z4 B,4- | B,4 B,4 _E8 | B,8 C8 | G,8 z4 G4 | %14
w: ve- ni- et,|Do- mi-|na- tor|Do- mi-|nus, et|_ in ma-|nu e-|ius ho-|
 F4 G4 D8 | B,6 C2 D4 D4 | G,16 | z4 G8 _E4- | E4 C4 G4 G4 | D8 B,8- | B,4 G,4 B,8 | F,16- | F,16 | %23
w: nor et im-|pe- * * ri-|um.|Ec- ce|_ Rex ve- ni-|et, Do-|* mi- nus|ter-||
 B,8 z4 G,4 | G,4 G,4 C8- | C4 B,4 A,4 G,4 | F,4 G,4 A,4 B,4 | B,4 C4 D8- | D16 | G,8 z8 | %30
w: rae: et|ip- se au-|* fe- ret ju-|gum cap- ti- vi-|ta- tis no-||strae.|
 z8 z4 G4- | G4 F4 _E4 D4 | C4 C4 G,4 G4- | G4 F4 _E8 | D8 D6 D2 | G,8 z4 C4 | B,4 G,4 B,6 C2 | %37
w: Su-|* per te, Je-|ru- sa- lem, o-|* ri- e-|tur Do- mi-|nus, et|glo- ri- a _|
 D2 E2 F2 G2 A2 G2 F2 E2 | D2 C2 B,4 F8 | B,8 z4 B,4 | C4 _E4 D4 C4 | G4 F4 G4 B4 | A4 G4 F4 C4 | %43
w: _ _ _ _ _ _ _ _|* * * e-|ius in|te vi- de- bi-|tur, in te vi-|de- bi- tur, in|
 D4 F4 G4 F4 | B,8 z4 B,4 | C4 _E4 D6 D2 | !fermata!G,16 |] %47
w: te vi- de- bi-|tur, in|te vi- de- bi-|tur.|

